X:1
T:Lauda Jerusalem
T:Juan Miguel Navarro "Hispalensis" (c1530-1580)
T:The Bible (Vulgate), Psalm 147
T:Lauda Jerusalem
T:Copyright © 
T:Copyright © 
T:Copyright © 
T:Copyright © 
T:Copyright © 
T:Copyright © 
T:Copyright © 
T:Copyright © 
T:Copyright © 
C:Juan Miguel Navarro "Hispalensis" (c1530-1580)
Z:The Bible (Vulgate), Psalm 147
Z:Copyright ©
%%score [ 1 2 3 4 ]
L:1/8
M:4/4
K:C
V:1 treble nm="Tiple (treble)" snm="S."
V:2 treble nm="Contr- alto" snm="A."
V:3 treble-8 transpose=-12 nm="Tenor" snm="T."
V:4 bass nm="Bajo (bass)" snm="B."
V:1
 z12 | z14 ||[M:2/2] z8 | z4 A4- | A2 A2 A4 | A2 A2 A4 | A2 A2 A2 A2 | A4 A2 c2 | B2 A4 ^G2 | A8- | %10
w: |||Quo-|* ni- am|con- for- ta-|vit se- ras por-|ta- rum tu-|a- * *|rum;|
 A8- | A8 | z2 c4 c2 | c2 c2 B4 | G2 E2 F2 G2 | A8 | G2 c4 B2- | BA E2 A4- | A2 ^G^F G8 || z14 | %20
w: ||be- ne|di- xit fi-|li- is tu- is|in|te, in _|_ _ _ _|* * * te.||
 z14 ||[M:2/2] E2 E2 A4 | G2 G2 c3 c | B2 G4 G2 | A6 ^G2 | A2 c4 B2 | A2 G2 F2 D2 | G2 A4 ^G2 | %28
w: |Qui e- mit-|tit e- lo- qui-|um su- um|ter- *|rae, e- lo-|qui- um su- um|ter- * *|
 A8 | z2 A2 A3 A | A4 A4- | A4 ^G4 | A8 | B4 (A4 | G4) F4 | E8- | E8- | E12 || z14 | z14 || %40
w: rae:|ve- lo- ci-|ter cur-|* rit|ser-|mo e-||ius.|_||||
[M:2/2] z8 | z8 | z8 | z8 | A4 G2 E2 | A2 B2 c4 | B2 c2 B2 B2 | A4 G2 c2 | B2 A2 A2 ^G2 | %49
w: ||||Mi- tit cris-|ta- lum su-|am si- cut bu-|cel- las, si-|cut bu- cel- *|
 A2 c4 B2 | A2 G2 F2 E2 | D2 C2 F2 E2- | E2 D2 E4 | z2 F2 F2 E2 | G2 A4 ^G2 | A2 E2 F2 G2 | %56
w: las an- te|fa- ci- em fri-|go- ris e- *|* * ius|fri- go- ris|e- * *|ius quis sus- ti-|
 A4 ^G2 A2 | G2 G2 F4 | E8- | E8- | E12 || z14 | z14 ||[M:2/2] z4 E4- | E2 E2 G3 G | G4 A4 | %66
w: ne- bit, quis|sus- ti- ne-|bit,|_||||Qui-|* a nun- ti-|at ver-|
 G2 c4 B2 | A2 G2 F4 | E2 A2 G3 F | EDEF G2 c2- | cB A2 B2 c2 | d4 z2 A2 | A3 A G2 c2- | %73
w: bum su- *||um Ja- cob, _|_ _ _ _ _ Ja-||cob jus-|ti- ti- as et|
 cBAG A2 F2 | G2 A2 A2 A2- | AGFE F2 E2- | EFGA G4 | G4 z4 | z4 z2 c2- | c2 BA G2 A2 | F4 E4 | %81
w: _ _ _ _ _ ju-|di- ci- a su-|||a|Is-||ra- el,|
 z2 F4 E2- | E2 D2 E4- | E8- | E8- | E8 || z14 | z14 ||[M:2/2] A8- | A8 | A8 | A8 | A8 | ^G4 A4 | %94
w: Is- *|* ra- el.|_|||||Glo-||ri-|a|pa-|tri et|
 B2 A4 ^G2 | A4 A4 | A6 A2 | G8 | A8 | B8 | A4 G4 | F2 E4 D2 | E8- | E8- | E12 || z14 | z14 |] %107
w: fi- * li-|o et|spi- ri-|tu-|i|sanc-|||to.|_||||
V:2
 z12 | z14 ||[M:2/2] E6 E2 | E4 E4 | E4 F4- | F2 E2 F4 | E2 E2 E2 E2 | F4 E3 F | G2 F2 E4 | %9
w: ||Quo- ni-|am con-|for- ta-||vit * ras por-|ta- rum tu-|a- * *|
 E6 F2- | F2 E2 F4 | E4 z2 E2- | E2 E2 E2 E2 | E3 F G4- | G2 G2 F2 E2- | E2 DC D4 | E8- | E8- | %18
w: rum, tu-|* * a-|rum; be-|* ne- di- xit|fi- li- is|_ tu- is in|_ _ _ _|te.|_|
 E12 || z14 | z14 ||[M:2/2] z4 A,2 A,2 | E4 C2 C2 | G3 F E4 | C2 D2 E4 | E2 E4 E2 | C2 E2 F4 | E8 | %28
w: |||Qui e-|mit- tit e-|lo- qui- um|su- um ter-|rae, su- um|ter- * *|rae:|
 z2 E2 E3 E | E4 z2 F2 | F3 F E2 E2- | EEEE E4 | E2 E3 EEE | G4 F4 | E2 E2 D4 | C6 B,2 | %36
w: ve- lo- ci-|ter ve-|lo- ci- ter cur-|* rit ser- mo e-|ius, cur- rit ser- mo|e- ius,|ser- mo e-||
 A,3 B, C4 | B,12 || z14 | z14 ||[M:2/2] E4 C2 A,2 | D2 E2 F4 | E2 E2 G3 F | ED E2 F2 E2- | %44
w: |ius.|||Mi- tit cris-|ta- lum su-|am si- cut bu-|cel- * * * *|
 E2 D2 E2 G2 | F2 F2 E4 | D2 E2 D2 B,2 | E4 E2 E2 | G2 CD E4 | E2 E4 E2 | A,2 B,2 B,2 C2 | %51
w: * * las, si|cut bu- cel-|las, si- cut bu-|cel- las, si-|cut bu- * cel-|las an- te|fa- ci- em fri-|
 B,2 C2 D2 C2- | CB, A,2 B,4 | C4 D2 C2 | D2 E2 E4 | E2 C2 G,2 E2 | E2 D2 E2 E2 | D2 C2 C2 B,2 | %58
w: go- ris e- *||* ius fri-|go- ris e-|ius quis sus- ti-|ne- * bit, quis|sus- ti- ne- *|
 C6 B,2 | C8 | B,12 || z14 | z14 ||[M:2/2] A,6 A,2 | C3 C C4 | E4 C2 F2- | F2 E2 DCDE | F2 E4 D2- | %68
w: ||bit.|||Qui- a|nun- ti- at|ver- bum su-|* um Ja- * * *||
 D2 C2 C4- | C4 z2 G2 | E2 F2 D2 E2 | F4 z2 F2 | F3 F E2 A2- | AGFE F2 D2 | E3 E E2 F2- | %75
w: * * cob,|_ Ja-||cob, jus-|ti- ti- as et|_ _ _ _ _ ju-|di- ci- a su-|
 FEDC D2 C2- | CD E2 D4 | C2 E4 DC | B,2 C2 A,B,CD | E4 z4 | z4 z2 E2- | E2 DC B,2 C2 | A,6 ^G,A, | %83
w: ||a Is- ra- *||el,|Is-||ra- * *|
 B,2 E4 DC | B,2 C2 B,4- | B,8 || z14 | z14 ||[M:2/2] E8 | F6 E2 | F8 | E8 | F4 F4 | E4 C4 | E8 | %95
w: |* * el.|_|||Glo-|ri- a|pa-|tri|et fi-|||
 C6 D2 | C3 B, A,^G, A,2 | E4 z2 D2 | F2 F2 E2 C2 | G4 D3 E | F2 CD E4 | D2 C3 B, A,2 | %102
w: li- *||o et|spi- ri- tu- i|sanc- * *|* * * to,|sanc- * * *|
 B,2 C4 B,2 | A,3 B, C4 | B,12 || z14 | z14 |] %107
w: ||to.|||
V:3
 G Acc dccc BA c2 | c8 Ac (B2 A2) ||[M:2/2] z8 | c6 c2 | c4 c2 c2 | c2 e3 d d2 | c2 c2 c2 c2 | %7
w: Lau- da _ Je- ru- sa- lem do- mi- * num:|lauda~deum~tu- um, Si- on. _||Quo- ni-|am con- for-|ta- * * *|vit se- ras por-|
 c4 c2 e2 | d2 c2 B4 | A2 c4 d2- | d2 e3 d d2- | d2 ^cB c4 | z2 c4 c2 | c2 c2 d4 | e2 e2 d2 cB | %15
w: ta- rum tu-|a- * *|rum; tu- a-||* * * rum;|be- ne|di- xit fi-|li- is tu- is *|
 A8 | B2 A4 B2 | c8 | B12 || c8 dc BA c2 | c8 Ac (B2 A2) ||[M:2/2] z8 | E2 E2 A4 | G2 G2 c3 B | %24
w: in|te, in _|_|te.|Qui~posuit~fines tu- os pa- * cem:|et~adipe~frumenti~sa- ti- at te. _||Qui e- mit-|tit e- lo- qui-|
 A4 B4 | A2 A4 G2 | AB c4 B2 | (c4 B4) | A4 z2 c2 | c3 c c2 d2 | d3 d c2 c2- | cccc B4 | %32
w: um su-|um ter- *|||rae: ve-|lo- ci- ter, ve-|lo- ci- ter cur-|* rit ser- mo e-|
 c2 c3 ccc | d8 | B2 c2 A4- | A2 G3 A B2 | c3 B A4- | A2 ^G^F G8 || c8 dc BA c2 | c8 Ac (B2 A2) || %40
w: ius, cur- rit ser- mo|e-||||* * * ius.|Qui~dat~nivem si- cut la- * nam:|nebulam~sicut~cine- rem spar- git. _|
[M:2/2] z4 A4 | G2 E2 A2 B2 | c4 B2 B2 | c3 B A2 G2 | A4 B2 B2 | d2 d2 G4 | G2 G2 B2 B2 | %47
w: Mi-|tit cris- ta- lum|su- am si-|cut bu- cel- *|* las, si|cut bu- cel-|las, si- cut bu-|
 c4 B2 c2 | d2 A2 B4 | A2 A4 G2 | F2 E2 D2 C2 | G2 A2 D2 E2 | F4 E4 | A4 A2 A2 | B2 c2 B4 | %55
w: cel- * *||las an- te|fa- ci- em fri-|go- ris e- *|* ius,|quis sus- ti-|ne- * *|
 A2 G2 d2 cB | A4 B2 c2 | B2 E2 F4 | G6 G2 | E2 A2 G2 A2- | A2 ^G^F G8 || c8 dcc BAc | %62
w: bit, quis sus- ti- *|ne- bit, quis|sus- ti- ne-|bit, quis|sus- ti- ne- *|* * * bit.|Emittet~verbum~suum,~et~lique- fa- * ci- et e- a:|
 c8 Ac (B2 A2) ||[M:2/2] z8 | z8 | z8 | z8 | z8 | E6 E2 | G3 G G4 | A4 G2 c2- | c2 B2 AGAB | %72
w: flabit~spiritus~eius,~et~flu- * ent a- *||||||Qui- a|nun- ti- at|ver- bum su-|* um Ja- * * *|
 c4 c4 | z2 A2 A3 A | G2 c2- cBAG | A3 A A2 G2 | G2 c4 B2 | c2 c4 BA | G2 A2 F4 | E4 z2 c2- | %80
w: * cob,|jus- ti- ti-|as et _ _ _ _|_ ju- di- ci-|a su- *|a Is- * *|* * ra-|el, Is-|
 c2 B2 c4 | z8 | z2 c4 BA | ^G4 A4 | B2 A4 ^G^F | ^G8 || c8 dc BA c2 | c8 Ac (B2 A2) ||[M:2/2] c8 | %89
w: * ra- el,||Is- * *||* * ra- *|el.|Non~fecit~taliter~omni na- ti- o- * ni:|et~iudicia~sua~non~manifesta- * vit e- *|Glo-|
 d6 e2- | e2 d2 d4- | d2 ^c^B c4 | d4 d3 c | BA B2 A4 | G2 c2 B2 B2 | A8 | z2 A2 c4- | %97
w: ri- a|_ _ pa-||tri et _|_ _ _ fi-|* * * li-|o|et spi-|
 c2 c2 B2 G2 | d4 c4 | d3 c B4 | z2 A2 B2 c2 | A2 G2 A4 | G2 EF GA B2 | c3 B A4- | A2 ^G^F G8 || %105
w: * ri- tu- i|sanc- *|* * to,|rt spi- ri-|tu- i sanc-|||* * * to|
 c8 dc BA c2 | c8 Ac (B2 A2) |] %107
w: Sicut~erat~in~principio,~et nunc et sem- * per:|et~in~saecula~saeculo- rum. A- men. _|
V:4
 z12 | z14 ||[M:2/2] z8 | A,6 A,2 | A,4 F,3 E, | D,2 C,2 D,4 | A,,2 A,2 A,2 A,2 | F,4 C,2 C,2 | %8
w: |||Quo- ni-|am con- for-|ta- * *|vit se- ras por-|ta- rum tu-|
 G,2 A,2 E,4 | A,,2 A,3 G,F,E, | D,2 C,2 D,4 | A,,8 | z2 A,4 A,2 | A,2 A,2 G,4 | C,2 C,2 D,2 E,2 | %15
w: a- * *|rum, tu- * * *|* * a-|rum;|be- ne|di- xit fi-|li- is tu- is|
 F,8 | E,2 A,,4 ^G,,2 | A,,8 | E,12 || z14 | z14 ||[M:2/2] z8 | z4 A,,2 A,,2 | E,4 C,2 C,2 | %24
w: in|te, in _|_|te.||||Qui e-|mit- tit e-|
 F,3 F, E,4 | z2 A,,4 E,2 | F,2 E,2 D,4 | C,2 A,,2 E,4 | A,,4 z2 A,2 | A,3 A, A,2 D,2 | %30
w: lo- qui- um|su- um|ter- * *||rae: ve-|lo- ci- ter, ve-|
 D,3 D, A,,2 A,,2- | A,,A,,A,,A,, E,4 | A,,2 A,3 A,A,A, | G,4 D,4 | E,2 C,2 D,4 | %35
w: lo- ci- ter cur-|* rit ser- mo e-|ius, cur- rit ser- mo|e- ius,|cur- rit ser-|
 A,,2 C,3 B,, ^G,,2 | A,,8 | E,12 || z14 | z14 ||[M:2/2] z8 | z8 | z4 E,4 | C,2 A,,2 D,2 E,2 | %44
w: mo e- * *||ius.|||||Mi-|tit cris- ta- lum|
 F,4 E,2 E,2 | D,2 D,2 C,4 | G,,2 C,2 G,,2 G,,2 | A,,B,,C,D, E,2 A,2 | G,2 F,2 E,4 | A,,4 z4 | z8 | %51
w: su- am si-|cut bu- cel-|las, si- cut bu-|cel- * * * las, si-|cut bu- cel-|las||
 z8 | z2 A,4 G,2 | F,3 E, D,2 C,2 | B,,2 A,,2 E,4 | A,,2 C,2 D,2 E,2 | F,4 E,2 A,,2 | %57
w: |an- te|fa- ci- em fri-|go- ris e-|ius quis sus- ti-|ne- bit, quis|
 B,,2 C,2 D,4 | C,6 G,,2 | A,,3 B,, C,2 A,,2 | E,12 || z14 | z14 ||[M:2/2] z8 | z8 | z8 | z8 | %67
w: sus- ti- ne-|bit, quis|sus- ti- ne- *|bit.|||||||
 z4 A,,4- | A,,2 A,,2 C,3 C, | C,4 E,4 | C,2 F,4 E,2 | D,C,D,E, F,4 | F,,4 C,4 | z2 F,2 F,3 F, | %74
w: Qui-|* a nun- ti-|at ver-|bum su- um|Ja- * * * *|* cob,|Jus- ti- ti-|
 E,2 A,2- A,G,F,E, | F,4 D,2 E,2- | E,D, C,2 G,4 | C,4 z4 | z4 z2 A,2- | A,2 G,F, E,2 F,2 | %80
w: as et _ _ _ _|_ ju- di-|* ci- a su-|a|Is-||
 D,4 C,2 C2- | C2 B,A, G,2 A,2 | F,4 E,4- | E,2 D,2 C,2 B,,A,, | ^G,,2 A,,2 E,4- | E,8 || z14 | %87
w: ra- el, Is-||ra- el,|_ Is- * * *|* ra- el.|_||
 z14 ||[M:2/2] A,,8 | D,6 C,2 | F,3 E, D,E,F,G, | A,8 | D,4 D,4 | E,4 F,4 | E,6 E,2 | A,,4 z2 D,2 | %96
w: |Glo-|ri- a|pa- * * * * *||tri et|fi- *|* li-|o et|
 F,6 F,2 | E,2 C,2 G,4 | F,2 D,2 A,4 | G,2 G,,3 A,,B,,C, | D,E, F,2 E,2 C,2 | D,2 E,2 F,4 | %102
w: spi- ri-|tu- i sanc-||to, sanc- * * *|||
 E,2 C,3 B,, ^G,,2 | A,,8 | E,12 || z14 | z14 |] %107
w: to, sanc- * *||to.|||

